www/assets/icons/gif.svg

<svg xmlns="http://www.w3.org/2000/svg" width="24" height="24" viewBox="0 0 24 24" fill='currentColor'><path d="M13 9h-1.5v6H13zM9 9H6c-.6 0-1 .5-1 1v4c0 .5.4 1 1 1h3c.6 0 1-.5 1-1v-2H8.5v1.5h-2v-3H10V10c0-.5-.4-1-1-1m10 1.5V9h-4.5v6H16v-2h2v-1.5h-2v-1z"/></svg>

<svg width="24" height="24" viewBox="0 0 24 24" xmlns="http://www.w3.org/2000/svg" fill='currentColor'><path d="M13 9H11.5V15H13V9Z"/><path d="M9 9H6C5.4 9 5 9.5 5 10V14C5 14.5 5.4 15 6 15H9C9.6 15 10 14.5 10 14V12H8.5V13.5H6.5V10.5H10V10C10 9.5 9.6 9 9 9Z"/><path d="M19 10.5V9H14.5V15H16V13H18V11.5H16V10.5H19Z"/></svg>
